X: 1
T: Anlan McKinney
C: Liz Carroll
R: jig
Z: 2013 John Chambers <jc:trillian.mit.edu>
B: Christine Martin "Ho-Ro-Gheallaidh" "Session Tunes for Scottish Fiddlers" v.3 2008
M: 6/8
L: 1/8
K: G
G2A |\
"G"GED "C"G2A | GED "C"G2A | "G"B3 GBd | "C"edd "D"dBd |\
"Em"e{f}ge "C"e{f}ge | "G"ded dBd | "C"edd "D"dBA | "G"BGG :|
|: g3 |\
"D"agg "G"bgg | "C"edd "D"edd | "C"edd "D"dBA | "G"Bdd "Em"g3 |\
"D"agg "G"bgg | "C"edd "D"edd | "C"edd "D"dBA | "G"BGG :|
